X: 1
T: McNamara's Barndance
R: Barndance
K:

M: 4/4
L: 1/8
K: Dmaj
|:(3ABc|d2dc dfaf|e2B2 B2ed|cBcb afge|defd A2FA|
d2dc dfaf|e2B2 B2ed|cBcb afge|d2dc d2:|
|:ag|f2af e2fe|defd A2FA|B2dB ABde|fdaf e2ag|
f2af e2fe|defd A2ga|bagf gaAc|[1 e2dc d2:| [2 e2a2|f2e2 ||

